test.cube
TITLE "Generated by Resolve"
LUT_3D_SIZE 5
0.0031433600 0.0013580500 0.0026245500
0.1325250000 0.0000000000 0.0001220720
0.4830700000 0.0121004000 0.0000000000
0.6123140000 0.0275425000 0.0000000000
0.6274660000 0.0227359000 0.0000000000
0.0000000000 0.1420920000 0.0032349100
0.1310140000 0.1283280000 0.0018005600
0.5236740000 0.1333790000 0.0000000000
0.6624400000 0.1235070000 0.0000000000
0.6561530000 0.1043870000 0.0000000000
0.0000000000 0.5254900000 0.0000000000
0.0000000000 0.5476310000 0.0000000000
0.6120390000 0.5334710000 0.0000000000
0.8757460000 0.4971540000 0.0000000000
0.8444650000 0.4330660000 0.0000000000
0.0000000000 0.7773860000 0.0000000000
0.0000000000 0.8180670000 0.0000000000
0.4402990000 0.8224610000 0.0000000000
0.9205010000 0.7553830000 0.0000000000
0.9878690000 0.7122300000 0.0000000000
0.0000000000 0.8006410000 0.0000000000
0.0000000000 0.8233010000 0.0000000000
0.3152820000 0.8258490000 0.0000000000
0.8007630000 0.8551460000 0.0000000000
0.9973600000 0.9209740000 0.0000000000
0.0015869400 0.0059205000 0.0646982000
0.1322350000 0.0055695400 0.1336690000
0.4944840000 0.0000000000 0.2218660000
0.6057220000 0.0000000000 0.2577100000
0.6290530000 0.0000000000 0.1920350000
0.0000000000 0.1689480000 0.1994200000
0.1108110000 0.1301900000 0.1525290000
0.5741970000 0.1035630000 0.0172274000
0.6617680000 0.0993362000 0.0000000000
0.6576030000 0.1059890000 0.0000000000
0.0000000000 0.5267410000 0.0076142500
0.0000000000 0.5277490000 0.0000000000
0.6067600000 0.5313190000 0.0000000000
0.8872820000 0.5112540000 0.0000000000
0.8527500000 0.4449530000 0.0000000000
0.0000000000 0.7484090000 0.0000000000
0.0000000000 0.8036770000 0.0000000000
0.3838860000 0.8124060000 0.0000000000
0.9193100000 0.7642940000 0.0000000000
0.9894870000 0.7203330000 0.0000000000
0.0000000000 0.7895630000 0.0000000000
0.0000000000 0.8202640000 0.0000000000
0.2898910000 0.8253600000 0.0000000000
0.7853820000 0.8546730000 0.0000000000
0.9960170000 0.9225600000 0.0000000000
0.0022430800 0.0173495000 0.2307930000
0.1305870000 0.0197604000 0.4260320000
0.5852450000 0.0000000000 0.5898830000
0.7107500000 0.0000000000 0.5918210000
0.6946060000 0.0000000000 0.5616690000
0.0000000000 0.1513850000 0.4836960000
0.2299380000 0.0665293000 0.5526970000
0.6086210000 0.0000000000 0.6155640000
0.6545510000 0.0000000000 0.5107810000
0.6836800000 0.0000000000 0.4549480000
0.0000000000 0.5415270000 0.4483860000
0.0000000000 0.5248340000 0.4843060000
0.5500420000 0.5766690000 0.5269550000
0.8678110000 0.5290760000 0.3937740000
0.8989550000 0.4569620000 0.2500190000
0.0000000000 0.6609450000 0.3510190000
0.0000000000 0.6749980000 0.3436330000
0.3308610000 0.7278710000 0.3327080000
0.9130540000 0.7970860000 0.2989700000
0.9958500000 0.7839480000 0.1554890000
0.0000000000 0.6903490000 0.3061720000
0.0000000000 0.7085680000 0.2876020000
0.1411920000 0.7447320000 0.2459600000
0.7117110000 0.8227820000 0.2156100000
0.9949040000 0.9181960000 0.1604180000
0.0133059000 0.0318761000 0.3987950000
0.1576560000 0.0278782000 0.5287560000
0.5647970000 0.0000000000 0.7752190000
0.7761960000 0.0000000000 0.8704050000
0.8143590000 0.0000152590 0.8760360000
0.1089800000 0.1024340000 0.6660410000
0.3509420000 0.0481117000 0.8222170000
0.6598760000 0.0000000000 0.9896390000
0.8296640000 0.0000000000 0.9841920000
0.8274360000 0.0000000000 0.8849320000
0.0000000000 0.4948500000 0.5810030000
0.0005188070 0.5418940000 0.7013350000
0.5919740000 0.5572290000 0.7797360000
0.8250250000 0.4454870000 0.8349580000
0.9032580000 0.4092470000 0.8088650000
0.0000000000 0.6475320000 0.5774470000
0.0000000000 0.6877390000 0.6527050000
0.2271000000 0.7997410000 0.7536580000
0.8850540000 0.8711530000 0.7948880000
0.9904630000 0.8340890000 0.6993970000
0.0000000000 0.6769510000 0.5526210000
0.0000000000 0.6993360000 0.5875640000
0.1290460000 0.7631490000 0.6323490000
0.6926530000 0.8820780000 0.6527050000
0.9837340000 0.9363090000 0.6498360000
0.0284581000 0.0415351000 0.5196460000
0.1672080000 0.0359808000 0.6155030000
0.5112840000 0.0000000000 0.8282600000
0.7752500000 0.0000000000 0.9399710000
0.8350350000 0.0000000000 0.9632870000
0.1524680000 0.0736095000 0.6901960000
0.3521020000 0.0454871000 0.8667430000
0.6369730000 0.0000000000 0.9981690000
0.8574200000 0.0000152590 0.9995880000
0.8710150000 0.0000000000 0.9957270000
0.0000000000 0.4738690000 0.6189210000
0.2193180000 0.5512320000 0.7697570000
0.6476840000 0.5547720000 0.8424810000
0.8236670000 0.3865870000 0.9634550000
0.9776000000 0.2993060000 0.9961550000
0.0000000000 0.6508740000 0.6754250000
0.0000000000 0.7391620000 0.7880520000
0.6003510000 0.8695810000 0.9073010000
0.9013660000 0.8386210000 0.9432520000
0.9947050000 0.7194020000 0.9835360000
0.0000000000 0.7657130000 0.7918520000
0.0000152590 0.8473640000 0.8601050000
0.1077130000 0.9240250000 0.8950180000
0.7720910000 0.9632870000 0.8906230000
0.9657740000 0.9518580000 0.8935230000
