test.cube
TITLE "Generated by Resolve"
LUT_3D_SIZE 33
0.0031433600 0.0013580500 0.0026245500
0.0047303000 0.0018005600 0.0028229200
0.0071259600 0.0029449900 0.0036926800
0.0105440000 0.0034943200 0.0038300100
0.0192721000 0.0041504500 0.0049591800
0.0344701000 0.0056611000 0.0067444900
0.0572366000 0.0041199400 0.0067902600
0.0881666000 0.0015869400 0.0042114900
0.1325250000 0.0000000000 0.0001220720
0.1793240000 0.0000000000 0.0000000000
0.2243990000 0.0000000000 0.0000000000
0.2759290000 0.0000000000 0.0000000000
0.3289840000 0.0000000000 0.0000000000
0.3740600000 0.0000000000 0.0000000000
0.4130010000 0.0016784900 0.0000000000
0.4496380000 0.0071107000 0.0000000000
0.4830700000 0.0121004000 0.0000000000
0.5123060000 0.0154269000 0.0000000000
0.5357900000 0.0184634000 0.0000000000
0.5555960000 0.0204471000 0.0000000000
0.5727170000 0.0226902000 0.0000000000
0.5857020000 0.0246738000 0.0000000000
0.5974210000 0.0258640000 0.0000000000
0.6055390000 0.0264897000 0.0000000000
0.6123140000 0.0275425000 0.0000000000
0.6169990000 0.0276951000 0.0000000000
0.6207060000 0.0274357000 0.0000000000
0.6233310000 0.0271916000 0.0000000000
0.6255130000 0.0266728000 0.0000000000
0.6271460000 0.0260014000 0.0000000000
0.6276650000 0.0247807000 0.0000000000
0.6274510000 0.0233158000 0.0000000000
0.6274660000 0.0227359000 0.0000000000
0.0030212900 0.0021667800 0.0033875000
0.0054932500 0.0033264700 0.0044556300
0.0085297900 0.0045014100 0.0048676300
0.0130465000 0.0052033300 0.0051575500
0.0234989000 0.0062867200 0.0057526500
0.0409705000 0.0067292300 0.0069428600
0.0660105000 0.0053864300 0.0060730900
0.1007250000 0.0014190900 0.0022735900
0.1426720000 0.0000000000 0.0000000000
0.1848330000 0.0000000000 0.0000000000
0.2300150000 0.0000000000 0.0000000000
0.2800790000 0.0000000000 0.0000000000
0.3301440000 0.0000000000 0.0000000000
0.3724730000 0.0000000000 0.0000000000
0.4102080000 0.0034180200 0.0000000000
0.4466770000 0.0098878500 0.0000000000
0.4808270000 0.0153353000 0.0000000000
0.5107350000 0.0190433000 0.0000000000
0.5347980000 0.0221561000 0.0000000000
0.5548030000 0.0246738000 0.0000000000
0.5719840000 0.0275273000 0.0000000000
0.5862670000 0.0292515000 0.0000000000
0.5982760000 0.0301671000 0.0000000000
0.6063020000 0.0310369000 0.0000000000
0.6141300000 0.0309148000 0.0000000000
0.6183870000 0.0305486000 0.0000000000
0.6224310000 0.0302281000 0.0000000000
0.6244750000 0.0299077000 0.0000000000
0.6259860000 0.0297093000 0.0000000000
0.6276950000 0.0286259000 0.0000000000
0.6282290000 0.0272679000 0.0000000000
0.6279090000 0.0257572000 0.0000000000
0.6276340000 0.0246433000 0.0000000000
0.0036774200 0.0048065900 0.0054016900
0.0056916100 0.0060883500 0.0061799000
0.0098878500 0.0077515800 0.0071412200
0.0166171000 0.0088654900 0.0074158800
0.0286870000 0.0104067000 0.0076905500
0.0457923000 0.0106813000 0.0071259600
0.0706951000 0.0102846000 0.0065919000
0.1037920000 0.0063172400 0.0025330000
0.1442590000 0.0037537200 0.0000000000
0.1883120000 0.0004425120 0.0000000000
0.2335700000 0.0000000000 0.0000000000
0.2821390000 0.0000000000 0.0000000000
0.3304650000 0.0000000000 0.0000000000
0.3712980000 0.0012817600 0.0000000000
0.4084230000 0.0060120500 0.0000000000
0.4436410000 0.0133822000 0.0000000000
0.4778060000 0.0192264000 0.0000000000
0.5084310000 0.0243839000 0.0000000000
0.5340660000 0.0277714000 0.0000000000
0.5544520000 0.0314641000 0.0000000000
0.5728390000 0.0336767000 0.0000000000
0.5882050000 0.0349432000 0.0000000000
0.6006100000 0.0355993000 0.0000000000
0.6096440000 0.0358740000 0.0000000000
0.6163270000 0.0356756000 0.0000000000
0.6208440000 0.0351873000 0.0000000000
0.6240180000 0.0345312000 0.0000000000
0.6262300000 0.0341802000 0.0000000000
0.6276950000 0.0339818000 0.0000000000
0.6286870000 0.0328222000 0.0000000000
0.6290990000 0.0311131000 0.0000000000
0.6287790000 0.0292821000 0.0000000000
0.6283670000 0.0275273000 0.0000000000
0.0042267500 0.0101167000 0.0081635800
0.0061799000 0.0108797000 0.0082093500
0.0092927400 0.0123445000 0.0092011900
0.0191501000 0.0152285000 0.0098115500
0.0323186000 0.0182956000 0.0098725900
0.0515602000 0.0191348000 0.0088807500
0.0767224000 0.0186007000 0.0070649300
0.1099570000 0.0162356000 0.0037537200
0.1505910000 0.0111543000 0.0000000000
0.1967800000 0.0068970800 0.0000000000
0.2434880000 0.0045166700 0.0000000000
0.2912640000 0.0040589000 0.0000000000
0.3373770000 0.0033417300 0.0000000000
0.3764710000 0.0071259600 0.0000000000
0.4119020000 0.0123903000 0.0000000000
0.4459300000 0.0197452000 0.0000000000
0.4794540000 0.0262455000 0.0000000000
0.5104450000 0.0321508000 0.0000000000
0.5366450000 0.0366979000 0.0000000000
0.5590140000 0.0392309000 0.0000000000
0.5786980000 0.0412757000 0.0000000000
0.5943850000 0.0426184000 0.0000000000
0.6062870000 0.0424659000 0.0000000000
0.6146490000 0.0425269000 0.0000000000
0.6205840000 0.0420691000 0.0000000000
0.6248420000 0.0412757000 0.0000000000
0.6276040000 0.0404822000 0.0000000000
0.6291140000 0.0400397000 0.0000000000
0.6303040000 0.0391699000 0.0000000000
0.6305790000 0.0381170000 0.0000000000
0.6301980000 0.0359808000 0.0000610361
0.6298010000 0.0339055000 0.0000000000
0.6293580000 0.0319066000 0.0000000000
0.0000000000 0.0229648000 0.0103609000
0.0013733100 0.0220340000 0.0102388000
0.0052338400 0.0223392000 0.0101930000
0.0170138000 0.0247654000 0.0112917000
0.0360571000 0.0295109000 0.0119326000
0.0570077000 0.0340124000 0.0106966000
0.0837262000 0.0348669000 0.0074921800
0.1190970000 0.0312657000 0.0037384600
0.1617150000 0.0247349000 0.0000000000
0.2086980000 0.0203708000 0.0000000000
0.2538640000 0.0179599000 0.0000000000
0.3008320000 0.0159609000 0.0000000000
0.3463190000 0.0151980000 0.0000000000
0.3852140000 0.0180667000 0.0000000000
0.4196380000 0.0234379000 0.0000000000
0.4534830000 0.0307317000 0.0000000000
0.4870070000 0.0377050000 0.0000000000
0.5193260000 0.0438087000 0.0000000000
0.5461810000 0.0479744000 0.0000000000
0.5686270000 0.0505684000 0.0000000000
0.5886170000 0.0517739000 0.0000000000
0.6037540000 0.0523232000 0.0000000000
0.6140840000 0.0523537000 0.0000000000
0.6218050000 0.0520333000 0.0000000000
0.6266570000 0.0517891000 0.0000000000
0.6300760000 0.0506600000 0.0000000000
0.6323340000 0.0497902000 0.0000000000
0.6333560000 0.0492714000 0.0000000000
0.6336460000 0.0476539000 0.0000000000
0.6334020000 0.0456703000 0.0000000000
0.6325780000 0.0426490000 0.0000000000
0.6317080000 0.0401160000 0.0000000000
0.6308380000 0.0376440000 0.0000305180
0.0000000000 0.0428473000 0.0096284400
0.0000000000 0.0412909000 0.0096894800
0.0012207200 0.0404974000 0.0102693000
0.0099946600 0.0408331000 0.0109407000
0.0317388000 0.0448005000 0.0119020000
0.0593271000 0.0494087000 0.0108644000
0.0884565000 0.0527199000 0.0079346900
0.1228960000 0.0544137000 0.0038910500
0.1657280000 0.0513924000 0.0000000000
0.2122380000 0.0474556000 0.0000000000
0.2556950000 0.0456245000 0.0000000000
0.3031660000 0.0414588000 0.0000000000
0.3508350000 0.0381781000 0.0000000000
0.3921570000 0.0394293000 0.0000000000
0.4272980000 0.0432441000 0.0000000000
0.4618140000 0.0486763000 0.0000000000
0.4973980000 0.0546731000 0.0000000000
0.5306020000 0.0598306000 0.0000000000
0.5580220000 0.0630045000 0.0000000000
0.5812920000 0.0654917000 0.0000000000
0.6001220000 0.0662242000 0.0000000000
0.6136260000 0.0655528000 0.0000000000
0.6242160000 0.0657816000 0.0000000000
0.6302890000 0.0656138000 0.0000000000
0.6342560000 0.0651102000 0.0000000000
0.6367440000 0.0639353000 0.0000000000
0.6379490000 0.0631418000 0.0000000000
0.6386970000 0.0618753000 0.0000000000
0.6385750000 0.0599680000 0.0000000000
0.6378120000 0.0568704000 0.0000000000
0.6360880000 0.0530098000 0.0000000000
0.6347140000 0.0495155000 0.0000000000
0.6336310000 0.0461280000 0.0000000000
0.0000000000 0.0691997000 0.0078584000
0.0000000000 0.0668345000 0.0078584000
0.0000000000 0.0642710000 0.0080415000
0.0000000000 0.0635538000 0.0090333400
0.0187076000 0.0651408000 0.0101320000
0.0519417000 0.0688945000 0.0100862000
0.0846571000 0.0726940000 0.0088960100
0.1182730000 0.0771496000 0.0064240500
0.1585260000 0.0799878000 0.0020599700
0.2036320000 0.0806592000 0.0000000000
0.2479740000 0.0803693000 0.0000000000
0.3001600000 0.0757610000 0.0000000000
0.3543760000 0.0696422000 0.0000000000
0.3987490000 0.0684977000 0.0000000000
0.4360880000 0.0706645000 0.0000000000
0.4713360000 0.0737316000 0.0000000000
0.5072400000 0.0769207000 0.0000000000
0.5412530000 0.0798352000 0.0000000000
0.5696040000 0.0814679000 0.0000000000
0.5933170000 0.0830091000 0.0000000000
0.6121610000 0.0828565000 0.0000000000
0.6254060000 0.0825513000 0.0000000000
0.6339210000 0.0817731000 0.0000000000
0.6396580000 0.0811933000 0.0000000000
0.6430910000 0.0806592000 0.0000000000
0.6448000000 0.0798199000 0.0000000000
0.6450290000 0.0792401000 0.0000000000
0.6449990000 0.0781720000 0.0000000000
0.6442050000 0.0755779000 0.0000000000
0.6430910000 0.0720531000 0.0000000000
0.6416270000 0.0679484000 0.0000000000
0.6404520000 0.0642863000 0.0000000000
0.6392460000 0.0608072000 0.0000000000
0.0000000000 0.1024800000 0.0060425700
0.0000000000 0.0988632000 0.0057984300
0.0000000000 0.0947280000 0.0051270300
0.0000000000 0.0924849000 0.0052796200
0.0003356980 0.0926070000 0.0056916100
0.0293278000 0.0940108000 0.0058442100
0.0716869000 0.0970474000 0.0058442100
0.1062180000 0.0992447000 0.0059052400
0.1458610000 0.1027700000 0.0022125600
0.1950260000 0.1057910000 0.0000000000
0.2441140000 0.1082630000 0.0000000000
0.2993970000 0.1081410000 0.0000000000
0.3569390000 0.1035630000 0.0000000000
0.4046540000 0.1000530000 0.0000000000
0.4429080000 0.1004040000 0.0000000000
0.4790880000 0.1014420000 0.0000000000
0.5163500000 0.1028760000 0.0000000000
0.5506980000 0.1033800000 0.0000000000
0.5802400000 0.1032120000 0.0000000000
0.6036010000 0.1026780000 0.0000000000
0.6225680000 0.1018840000 0.0000000000
0.6360110000 0.1010760000 0.0000000000
0.6444040000 0.1004650000 0.0000000000
0.6493320000 0.1000530000 0.0000000000
0.6520180000 0.0997635000 0.0000000000
0.6527350000 0.0993668000 0.0000000000
0.6533150000 0.0988479000 0.0000000000
0.6535440000 0.0983291000 0.0000000000
0.6525220000 0.0959182000 0.0000000000
0.6506750000 0.0915236000 0.0000000000
0.6489970000 0.0875105000 0.0000000000
0.6475780000 0.0840009000 0.0000000000
0.6462500000 0.0805524000 0.0000000000
0.0000000000 0.1420920000 0.0032349100
0.0000000000 0.1369500000 0.0030212900
0.0000000000 0.1314560000 0.0026245500
0.0000000000 0.1284960000 0.0022888500
0.0000000000 0.1271840000 0.0014343500
0.0035706100 0.1268480000 0.0006713970
0.0451362000 0.1269550000 0.0009155410
0.0894636000 0.1281910000 0.0018768600
0.1310140000 0.1283280000 0.0018005600
0.1858090000 0.1306780000 0.0000000000
0.2451060000 0.1345690000 0.0000000000
0.3021440000 0.1378960000 0.0000000000
0.3600370000 0.1369340000 0.0000000000
0.4104370000 0.1346760000 0.0000000000
0.4497600000 0.1338830000 0.0000000000
0.4866560000 0.1337150000 0.0000000000
0.5236740000 0.1333790000 0.0000000000
0.5587550000 0.1334710000 0.0000000000
0.5887850000 0.1321280000 0.0000000000
0.6127870000 0.1301750000 0.0000000000
0.6323190000 0.1270010000 0.0000000000
0.6461740000 0.1247580000 0.0000000000
0.6547490000 0.1239340000 0.0000000000
0.6600600000 0.1233690000 0.0000000000
0.6624400000 0.1235070000 0.0000000000
0.6635080000 0.1234000000 0.0000000000
0.6636300000 0.1234450000 0.0000000000
0.6636450000 0.1238120000 0.0000000000
0.6626690000 0.1217980000 0.0000000000
0.6610210000 0.1172960000 0.0000000000
0.6592510000 0.1125810000 0.0000000000
0.6576330000 0.1083240000 0.0000000000
0.6561530000 0.1043870000 0.0000000000
0.0000000000 0.1863280000 0.0000000000
0.0000000000 0.1808650000 0.0000000000
0.0000000000 0.1749290000 0.0000000000
0.0000000000 0.1703970000 0.0000000000
0.0000000000 0.1686880000 0.0000000000
0.0000000000 0.1677120000 0.0000000000
0.0093080000 0.1673000000 0.0000000000
0.0638895000 0.1673610000 0.0000000000
0.1180740000 0.1673610000 0.0000000000
0.1732360000 0.1655910000 0.0000000000
0.2359200000 0.1660030000 0.0000000000
0.3029220000 0.1700770000 0.0000000000
0.3644310000 0.1731290000 0.0000000000
0.4165260000 0.1737540000 0.0000000000
0.4587620000 0.1742580000 0.0000000000
0.4949870000 0.1735870000 0.0000000000
0.5315630000 0.1726560000 0.0000000000
0.5670860000 0.1714350000 0.0000000000
0.5974060000 0.1696040000 0.0000000000
0.6227510000 0.1672390000 0.0000000000
0.6439150000 0.1644160000 0.0000000000
0.6589910000 0.1608150000 0.0000000000
0.6680550000 0.1580990000 0.0000000000
0.6732890000 0.1559470000 0.0000000000
0.6760050000 0.1550320000 0.0000000000
0.6773940000 0.1548030000 0.0000000000
0.6769510000 0.1548940000 0.0000000000
0.6768750000 0.1550930000 0.0000000000
0.6760510000 0.1536890000 0.0000000000
0.6739760000 0.1490960000 0.0000000000
0.6716410000 0.1438320000 0.0000000000
0.6696730000 0.1393150000 0.0000000000
0.6676280000 0.1346460000 0.0000000000
0.0000000000 0.2297550000 0.0000000000
0.0000000000 0.2255280000 0.0000000000
0.0000000000 0.2199280000 0.0000000000
0.0000000000 0.2155640000 0.0000000000
0.0000000000 0.2131990000 0.0000000000
0.0000000000 0.2130310000 0.0000000000
0.0000000000 0.2137790000 0.0000000000
0.0155947000 0.2147710000 0.0000000000
0.0912642000 0.2142370000 0.0000000000
0.1608150000 0.2128330000 0.0000000000
0.2236210000 0.2080260000 0.0000000000
0.2929580000 0.2070340000 0.0000000000
0.3652400000 0.2122070000 0.0000000000
0.4246590000 0.2163120000 0.0000000000
0.4691390000 0.2181890000 0.0000000000
0.5067220000 0.2189520000 0.0000000000
0.5439230000 0.2181280000 0.0000000000
0.5782560000 0.2162360000 0.0000000000
0.6088650000 0.2143280000 0.0000000000
0.6359500000 0.2121920000 0.0000000000
0.6576180000 0.2096130000 0.0000000000
0.6742350000 0.2066380000 0.0000000000
0.6859540000 0.2028230000 0.0000000000
0.6911120000 0.1995420000 0.0000000000
0.6935380000 0.1960780000 0.0000000000
0.6943470000 0.1938050000 0.0000000000
0.6938890000 0.1928280000 0.0000000000
0.6927440000 0.1917600000 0.0000000000
0.6913860000 0.1907530000 0.0000000000
0.6892810000 0.1859770000 0.0000000000
0.6869760000 0.1803460000 0.0000000000
0.6847490000 0.1748680000 0.0000000000
0.6826890000 0.1696960000 0.0000000000
0.0000000000 0.2737320000 0.0000000000
0.0000000000 0.2693370000 0.0000000000
0.0000000000 0.2640420000 0.0000000000
0.0000000000 0.2597700000 0.0000000000
0.0000000000 0.2581830000 0.0000000000
0.0000000000 0.2578160000 0.0000000000
0.0000000000 0.2599980000 0.0000000000
0.0000000000 0.2615400000 0.0000000000
0.0298466000 0.2635390000 0.0000000000
0.1304950000 0.2628980000 0.0000000000
0.2095520000 0.2605330000 0.0000000000
0.2794080000 0.2550390000 0.0000000000
0.3546650000 0.2554360000 0.0000000000
0.4242620000 0.2615850000 0.0000000000
0.4805070000 0.2651260000 0.0000000000
0.5218590000 0.2661330000 0.0000000000
0.5609980000 0.2666510000 0.0000000000
0.5965210000 0.2664840000 0.0000000000
0.6263220000 0.2635840000 0.0000000000
0.6515300000 0.2604870000 0.0000000000
0.6742200000 0.2575110000 0.0000000000
0.6920880000 0.2550850000 0.0000000000
0.7050280000 0.2517890000 0.0000000000
0.7125810000 0.2474400000 0.0000000000
0.7159530000 0.2428020000 0.0000000000
0.7163650000 0.2388040000 0.0000000000
0.7150070000 0.2347750000 0.0000000000
0.7132980000 0.2319070000 0.0000000000
0.7115590000 0.2296330000 0.0000000000
0.7088880000 0.2251770000 0.0000000000
0.7057150000 0.2190740000 0.0000000000
0.7028150000 0.2135190000 0.0000000000
0.7000230000 0.2081030000 0.0000000000
0.0000000000 0.3198140000 0.0000000000
0.0000000000 0.3152970000 0.0000000000
0.0000000000 0.3097120000 0.0000000000
0.0000000000 0.3052720000 0.0000000000
0.0000000000 0.3042340000 0.0000000000
0.0000000000 0.3040060000 0.0000000000
0.0000000000 0.3057450000 0.0000000000
0.0000000000 0.3086290000 0.0000000000
0.0001525900 0.3116500000 0.0000000000
0.0661173000 0.3142440000 0.0000000000
0.1860690000 0.3150070000 0.0000000000
0.2692910000 0.3112990000 0.0000000000
0.3446560000 0.3069200000 0.0000000000
0.4152900000 0.3083850000 0.0000000000
0.4802470000 0.3132680000 0.0000000000
0.5353480000 0.3163960000 0.0000000000
0.5803770000 0.3178760000 0.0000000000
0.6182190000 0.3165480000 0.0000000000
0.6490270000 0.3153580000 0.0000000000
0.6751810000 0.3121230000 0.0000000000
0.6963910000 0.3079880000 0.0000000000
0.7141990000 0.3040360000 0.0000000000
0.7285110000 0.3004200000 0.0000000000
0.7370110000 0.2958570000 0.0000000000
0.7409020000 0.2910960000 0.0000000000
0.7419850000 0.2856640000 0.0000000000
0.7407490000 0.2810100000 0.0000000000
0.7380030000 0.2765700000 0.0000000000
0.7354850000 0.2724650000 0.0000000000
0.7321740000 0.2669410000 0.0000000000
0.7280990000 0.2600290000 0.0000000000
0.7245590000 0.2540470000 0.0000000000
0.7212180000 0.2481270000 0.0000000000
0.0000000000 0.3699850000 0.0000000000
0.0000000000 0.3653320000 0.0000000000
0.0000000000 0.3594570000 0.0000000000
0.0000000000 0.3549710000 0.0000000000
0.0000000000 0.3531700000 0.0000000000
0.0000000000 0.3541310000 0.0000000000
0.0000000000 0.3564510000 0.0000000000
0.0000000000 0.3596860000 0.0000000000
0.0000000000 0.3632410000 0.0000000000
0.0162814000 0.3674370000 0.0000000000
0.1366140000 0.3695890000 0.0000000000
0.2553290000 0.3687500000 0.0000000000
0.3393760000 0.3647670000 0.0000000000
0.4113680000 0.3615320000 0.0000000000
0.4769360000 0.3626760000 0.0000000000
0.5390710000 0.3678190000 0.0000000000
0.5964140000 0.3703980000 0.0000000000
0.6414740000 0.3696500000 0.0000000000
0.6744340000 0.3673610000 0.0000000000
0.7019150000 0.3653620000 0.0000000000
0.7247270000 0.3630430000 0.0000000000
0.7426260000 0.3573970000 0.0000000000
0.7564050000 0.3517970000 0.0000000000
0.7651790000 0.3465630000 0.0000000000
0.7700620000 0.3406420000 0.0000000000
0.7716180000 0.3349510000 0.0000000000
0.7706570000 0.3291520000 0.0000000000
0.7685210000 0.3236440000 0.0000000000
0.7653770000 0.3180290000 0.0000000000
0.7605100000 0.3119710000 0.0000000000
0.7556110000 0.3046920000 0.0000000000
0.7514610000 0.2984360000 0.0000000000
0.7475090000 0.2921800000 0.0000000000
0.0000000000 0.4217440000 0.0000000000
0.0000000000 0.4189360000 0.0000000000
0.0000000000 0.4148930000 0.0000000000
0.0000000000 0.4099490000 0.0000000000
0.0000000000 0.4077060000 0.0000000000
0.0000000000 0.4087890000 0.0000000000
0.0000000000 0.4110630000 0.0000000000
0.0000000000 0.4158690000 0.0000000000
0.0000000000 0.4205080000 0.0000000000
0.0000000000 0.4244600000 0.0000000000
0.0666056000 0.4274360000 0.0000000000
0.2229800000 0.4283510000 0.0000000000
0.3296710000 0.4260470000 0.0000000000
0.4108030000 0.4231480000 0.0000000000
0.4766460000 0.4198370000 0.0000000000
0.5374080000 0.4188140000 0.0000000000
0.6017700000 0.4227210000 0.0000000000
0.6597090000 0.4234990000 0.0000000000
0.7017780000 0.4215610000 0.0000000000
0.7329670000 0.4195010000 0.0000000000
0.7570150000 0.4164950000 0.0000000000
0.7761350000 0.4126040000 0.0000000000
0.7900210000 0.4061190000 0.0000000000
0.7983980000 0.3992680000 0.0000000000
0.8026550000 0.3924620000 0.0000000000
0.8047760000 0.3855650000 0.0000000000
0.8036160000 0.3786980000 0.0000000000
0.8012050000 0.3723960000 0.0000000000
0.7966890000 0.3655150000 0.0000000000
0.7920200000 0.3586330000 0.0000000000
0.7869380000 0.3517360000 0.0000000000
0.7826050000 0.3452810000 0.0000000000
0.7782860000 0.3387500000 0.0000000000
0.0000000000 0.4741590000 0.0000000000
0.0000000000 0.4735940000 0.0000000000
0.0000000000 0.4719010000 0.0000000000
0.0000000000 0.4701760000 0.0000000000
0.0000000000 0.4693830000 0.0000000000
0.0000000000 0.4708170000 0.0000000000
0.0000000000 0.4744030000 0.0000000000
0.0000000000 0.4778820000 0.0000000000
0.0000000000 0.4823990000 0.0000000000
0.0000000000 0.4861520000 0.0000000000
0.0183108000 0.4886240000 0.0000000000
0.1640800000 0.4892350000 0.0000000000
0.3104140000 0.4876940000 0.0000000000
0.4051580000 0.4843060000 0.0000000000
0.4769360000 0.4806440000 0.0000000000
0.5413440000 0.4763260000 0.0000000000
0.6041200000 0.4745250000 0.0000000000
0.6699320000 0.4764630000 0.0000000000
0.7237660000 0.4768750000 0.0000000000
0.7646600000 0.4736250000 0.0000000000
0.7907380000 0.4698410000 0.0000000000
0.8105290000 0.4648200000 0.0000000000
0.8262300000 0.4596170000 0.0000000000
0.8351260000 0.4535590000 0.0000000000
0.8398410000 0.4456240000 0.0000000000
0.8404360000 0.4368200000 0.0000000000
0.8388190000 0.4288850000 0.0000000000
0.8356450000 0.4210730000 0.0000000000
0.8306250000 0.4135810000 0.0000000000
0.8257420000 0.4069430000 0.0000000000
0.8202490000 0.3998470000 0.0000000000
0.8155030000 0.3934230000 0.0000000000
0.8106970000 0.3863740000 0.0000000000
0.0000000000 0.5254900000 0.0000000000
0.0000000000 0.5263750000 0.0000000000
0.0000000000 0.5273060000 0.0000000000
0.0000000000 0.5291680000 0.0000000000
0.0000000000 0.5318380000 0.0000000000
0.0000000000 0.5366750000 0.0000000000
0.0000000000 0.5419240000 0.0000000000
0.0000000000 0.5451440000 0.0000000000
0.0000000000 0.5476310000 0.0000000000
0.0000000000 0.5506830000 0.0000000000
0.0020752300 0.5521320000 0.0000000000
0.0802472000 0.5528190000 0.0000000000
0.2714890000 0.5511100000 0.0000000000
0.3909670000 0.5464260000 0.0000000000
0.4722970000 0.5422140000 0.0000000000
0.5427330000 0.5381860000 0.0000000000
0.6120390000 0.5334710000 0.0000000000
0.6751200000 0.5294420000 0.0000000000
0.7347220000 0.5285880000 0.0000000000
0.7830620000 0.5262680000 0.0000000000
0.8212410000 0.5216600000 0.0000000000
0.8444950000 0.5163960000 0.0000000000
0.8600290000 0.5101700000 0.0000000000
0.8700080000 0.5049360000 0.0000000000
0.8757460000 0.4971540000 0.0000000000
0.8765540000 0.4883500000 0.0000000000
0.8743880000 0.4788280000 0.0000000000
0.8708170000 0.4709240000 0.0000000000
0.8651100000 0.4623180000 0.0000000000
0.8593270000 0.4538640000 0.0000000000
0.8537580000 0.4463110000 0.0000000000
0.8491490000 0.4396580000 0.0000000000
0.8444650000 0.4330660000 0.0000000000
0.0000000000 0.5726560000 0.0000000000
0.0000000000 0.5743800000 0.0000000000
0.0000000000 0.5779050000 0.0000000000
0.0000000000 0.5821010000 0.0000000000
0.0000000000 0.5876400000 0.0000000000
0.0000000000 0.5942780000 0.0000000000
0.0000000000 0.6011440000 0.0000000000
0.0000000000 0.6069730000 0.0000000000
0.0000000000 0.6112150000 0.0000000000
0.0000000000 0.6158240000 0.0000000000
0.0001220720 0.6172270000 0.0000000000
0.0242161000 0.6151830000 0.0000000000
0.2063780000 0.6126190000 0.0000000000
0.3596250000 0.6079960000 0.0000000000
0.4605020000 0.6021970000 0.0000000000
0.5394980000 0.5982450000 0.0000000000
0.6138090000 0.5917300000 0.0000000000
0.6821090000 0.5847260000 0.0000000000
0.7398340000 0.5774930000 0.0000000000
0.7941250000 0.5748840000 0.0000000000
0.8382390000 0.5703670000 0.0000000000
0.8705270000 0.5634090000 0.0000000000
0.8877700000 0.5557030000 0.0000000000
0.8975510000 0.5485620000 0.0000000000
0.9036700000 0.5418780000 0.0000000000
0.9064620000 0.5347220000 0.0000000000
0.9054090000 0.5264060000 0.0000000000
0.9017930000 0.5168080000 0.0000000000
0.8960100000 0.5083540000 0.0000000000
0.8893260000 0.4989090000 0.0000000000
0.8839090000 0.4912340000 0.0000000000
0.8796830000 0.4846420000 0.0000000000
0.8758980000 0.4786600000 0.0000000000
0.0000000000 0.6163880000 0.0000000000
0.0000000000 0.6191200000 0.0000000000
0.0000000000 0.6233010000 0.0000000000
0.0000000000 0.6290230000 0.0000000000
0.0000000000 0.6359200000 0.0000000000
0.0000000000 0.6431980000 0.0000000000
0.0000000000 0.6498970000 0.0000000000
0.0000000000 0.6572210000 0.0000000000
0.0000000000 0.6643170000 0.0000000000
0.0000000000 0.6706040000 0.0000000000
0.0000000000 0.6757460000 0.0000000000
0.0041657100 0.6750130000 0.0000000000
0.1128250000 0.6711680000 0.0000000000
0.3156940000 0.6653850000 0.0000000000
0.4333100000 0.6586250000 0.0000000000
0.5269090000 0.6516520000 0.0000000000
0.6071870000 0.6451510000 0.0000000000
0.6816820000 0.6372320000 0.0000000000
0.7437860000 0.6281990000 0.0000000000
0.7971160000 0.6199740000 0.0000000000
